X: 328
T: Mavromata ke Xanthi
M: 4/4
L: 1/8
Q: 1/4=140
K: Gmin
%%MIDI drum d2ddd2d2 43 41 41 41 41
%%MIDI drumon
|:GDDCCB,B,A,|G,A,B,CD2z2|GDDCCB,B,A,|G,2C2G,2z2 :|\
%%MIDI drumoff
|:G,2G,2G,2C2|D2D6       |G2D2C2B,2  |G,2G,2G,4  :|
|:C2B,2B,2A,2|G,2G,2C4   |C2B,2B,2A,2|G,2C2G,4   :|



